svgs/thin/integral.svg

<svg xmlns="http://www.w3.org/2000/svg" viewBox="0 0 320 512"><!-- Font Awesome Pro 6.0.0-alpha2 by @fontawesome - https://fontawesome.com License - https://fontawesome.com/license (Commercial License) --><path d="M288 68V72C288 76.406 284.422 80 280 80S272 76.406 272 72V68C272 39.312 248.672 16 220 16S168 39.312 168 68V444C168 481.5 137.5 512 100 512S32 481.5 32 444V440C32 435.594 35.578 432 40 432S48 435.594 48 440V444C48 472.688 71.328 496 100 496S152 472.688 152 444V68C152 30.5 182.5 0 220 0S288 30.5 288 68Z"/></svg>

<svg xmlns="http://www.w3.org/2000/svg" viewBox="0 0 320 512"><!--! Font Awesome Pro 6.3.0 by @fontawesome - https://fontawesome.com License - https://fontawesome.com/license (Commercial License) Copyright 2023 Fonticons, Inc. --><path d="M288 68V72c0 4.406-3.578 8-8 8S272 76.41 272 72V68c0-28.69-23.33-52-52-52S168 39.31 168 68v376C168 481.5 137.5 512 100 512S32 481.5 32 444V440c0-4.406 3.578-8 8-8s8 3.594 8 8v4c0 28.69 23.33 52 52 52s52-23.31 52-52V68C152 30.5 182.5 0 220 0S288 30.5 288 68z"/></svg>
